resources/haticons/SVG/tune.svg

<!-- Generated by IcoMoon.io -->
<svg version="1.1" xmlns="http://www.w3.org/2000/svg" width="24" height="24" viewBox="0 0 24 24">
<title>tune</title>
<path d="M15 9v-6h2.016v2.016h3.984v1.969h-3.984v2.016h-2.016zM21 12.984h-9.984v-1.969h9.984v1.969zM6.984 9h2.016v6h-2.016v-2.016h-3.984v-1.969h3.984v-2.016zM12.984 21h-1.969v-6h1.969v2.016h8.016v1.969h-8.016v2.016zM3 5.016h9.984v1.969h-9.984v-1.969zM3 17.016h6v1.969h-6v-1.969z"></path>
</svg>

<svg xmlns="http://www.w3.org/2000/svg" width="24" height="24"><path d="M15 9V3h2.016v2.016H21v1.969h-3.984v2.016H15zm6 3.984h-9.984v-1.969H21v1.969zM6.984 9H9v6H6.984v-2.016H3v-1.969h3.984V8.999zm6 12h-1.969v-6h1.969v2.016H21v1.969h-8.016v2.016zM3 5.016h9.984v1.969H3V5.016zm0 12h6v1.969H3v-1.969z"/></svg>
